communes/2772.svg

<?xml version="1.0" encoding="UTF-8"?>
<svg version="1.1" viewBox="0 0 540 620" xmlns="http://www.w3.org/2000/svg" xmlns:cc="http://creativecommons.org/ns#" xmlns:dc="http://purl.org/dc/elements/1.1/" xmlns:rdf="http://www.w3.org/1999/02/22-rdf-syntax-ns#">
<metadata>
<rdf:RDF>
<cc:Work rdf:about="">
<dc:format>image/svg+xml</dc:format>
<dc:type rdf:resource="http://purl.org/dc/dcmitype/StillImage"/>
</cc:Work>
</rdf:RDF>
</metadata>
<title>Wappen von Pfeffingen</title>
<desc>Wappen der Schweizer Gemeinde Pfeffingen, Kanton Baselland</desc>
<defs>
<clipPath id="a">
<path d="m9 9h522v341a261 261 0 0 1-522 0z"/>
</clipPath>
</defs>
<path d="m4.5 4.5h531v345.5a265.5 265.5 0 0 1-531 0z" fill="#fff" stroke="#000" stroke-width="9"/>
<path d="m0 338h162v-24h41c0-45-29-88-50-88-47 0-7 75-67 75-14 0-23-4-30-13 17-2 24-15 24-27 0-30-55-94-13-130 52-46 161 46 161 183h22c0-140-60-145-60-203 0-36 24-46 46-56 32-16 22-32 34-32s2 16 34 32c22 10 46 20 46 56 0 58-60 63-60 203h22c0-137 109-229 161-183 42 36-13 100-13 130 0 12 7 25 24 27-7 9-16 13-30 13-60 0-20-75-67-75-21 0-50 43-50 88h41v24h162v126h-540" clip-path="url(#a)" fill="#0056ad" stroke="#000" stroke-width="4"/>
</svg>

<?xml version="1.0" encoding="UTF-8" standalone="no"?>
<svg
   xmlns:dc="http://purl.org/dc/elements/1.1/"
   xmlns:cc="http://creativecommons.org/ns#"
   xmlns:rdf="http://www.w3.org/1999/02/22-rdf-syntax-ns#"
   xmlns:svg="http://www.w3.org/2000/svg"
   xmlns="http://www.w3.org/2000/svg"
   xmlns:sodipodi="http://sodipodi.sourceforge.net/DTD/sodipodi-0.dtd"
   xmlns:inkscape="http://www.inkscape.org/namespaces/inkscape"
   version="1.1"
   width="540"
   height="620"
   viewBox="0,0 540,620"
   id="svg15"
   sodipodi:docname="2772.svg">
  <metadata
     id="metadata19">
    <rdf:RDF>
      <cc:Work
         rdf:about="">
        <dc:format>image/svg+xml</dc:format>
        <dc:type
           rdf:resource="http://purl.org/dc/dcmitype/StillImage" />
      </cc:Work>
    </rdf:RDF>
  </metadata>
  <sodipodi:namedview
     pagecolor="#ffffff"
     bordercolor="#666666"
     borderopacity="1"
     objecttolerance="10"
     gridtolerance="10"
     guidetolerance="10"
     inkscape:pageopacity="0"
     inkscape:pageshadow="2"
     inkscape:window-width="640"
     inkscape:window-height="480"
     id="namedview17" />
  <title
     id="title2">Wappen von Pfeffingen</title>
  <desc
     id="desc4">Wappen der Schweizer Gemeinde Pfeffingen, Kanton Baselland</desc>
  <defs
     id="defs9">
    <clipPath
       id="cpSchild">
      <path
         d="M 9,9 H 531 V 350 A 261,261 0 0,1 9,350 z"
         id="path6" />
    </clipPath>
  </defs>
  <path
     d="M 4.5,4.5 h 531 V 350 A 265.5,265.5 0 0,1 4.5,350 z"
     stroke="black"
     stroke-width="9"
     fill="white"
     id="path11" />
  <path
     d="M 0,338 H 162 V 314 h 41 c 0,-45 -29,-88 -50,-88 -47,0 -7,75 -67,75 -14,0 -23,-4 -30,-13 17,-2 24,-15 24,-27 0,-30 -55,-94 -13,-130 52,-46 161,46 161,183 h 22 c 0,-140 -60,-145 -60,-203 0,-36 24,-46 46,-56 32,-16 22,-32 34,-32 12,0 2,16 34,32 22,10 46,20 46,56 0,58 -60,63 -60,203 h 22 c 0,-137 109,-229 161,-183 42,36 -13,100 -13,130 0,12 7,25 24,27 -7,9 -16,13 -30,13 -60,0 -20,-75 -67,-75 -21,0 -50,43 -50,88 h 41 v 24 H 540 V 464 H 0"
     stroke="black"
     stroke-width="4"
     fill="#0056ad"
     clip-path="url(#cpSchild)"
     id="path13" />
</svg>
